!!!COM: Louise Reichardt
!!!CNT: Deutsch
!!!TXO: Deutsch
!!!OTL: Nach Sevilla
!!!LYR: Brentano
!!!OPR:
!!!OPS: No opus information available
!!!ONM: No. 11
!!!ENC: Ben Fuhrman
!!!YOR: Louise Reichardt: Songs
!!!YOR: New York, Da Capo Press, 1981
!!!ODT: 1811
!!NB: Only vocal melody encoded.
!!NB: First instance of melodic material only encoded.
!!created: 2/17/10 5:00PM
!!proofed and posted: 2/17/10 5:00PM
**kern	**silbe
*clef G2	*
*k[f#c#g#d#]	*
*M2/4	*
*MM[Lebhaft]	*
{8.b	{Nach
16b	Se-
=1	=1
8b	-vil-
8g#	-la,
8r	.
!! In this edition, the following two notes are a dotted 8th and a 16th, however in "Zwolfe Gesange," they are indicated as a dotted 16th and a 32nd. I've chosen to use that version as it makes metric sense. -Fuhrman
16.ee	nach
32ee	Se-
=2	=2
8ee	-vil-
8b	-la,
8r	.
16ee	wo
16dd#	die
=3	=3
8.cc#	ho-
16b	-hen
8a	Pracht-
16b	|
16cc#	-ge-
=4	=4
8cc#	-ba2u-
8b}	-de}
8r	.
{16b	{in
16ee	den
=5	=5
16ee	brei-
16dd#	|
16cc#	-ten
16b	|
8.b	Stras-
16a	-sen
=6	=6
8a	stehn,
8g#}	|}
8r	.
{16g#	{aus
16g#	den
=7	=7
8.cc#	Fen-
16ddn	-stern
8.cc#	rei-
16b	-che
=8	=8
8b	Leu-
8a	-te
8.ff#	scho2n-
16cc#	-ge-
=9	=9
8.b	-putz-
16cc#	-te
8.b	Frau-
16a	-en
=10	=10
8a	sehn:
8g#}	|}
8r	.
{16ee	{da
16b	hin
=11	=11
8cc#	sehnt
8a	mein
8f#	Herz
8b	lich
=12	=12
8g#}	nicht,}
8r	.
{8.b	{da
16ee	hin
=13	=13
8cc#	sehnt
8ff#	mein
8ee	Herz
8dd#	sich
=14	=14
8ee}	nicht.}
8r	.
!! In the score, there are three 8th note rests present here, but it does not make metric sense when the pickups are taken into account. -Fuhrman
!! Second Verse begins here.
{8.b	{Nach
16b	Se-
=15	=15
8b	-vil-
8g#	-la,
8r	.
!! In this edition, the following two notes are a dotted 8th and a 16th, however in "Zwolfe Gesange," they are indicated as a dotted 16th and a 32nd. I've chosen to use that version as it makes metric sense. -Fuhrman
16.ee	nach
32ee	Se-
=16	=16
8ee	-vil-
8b	-la,
8r	.
16ee	wo
16dd#	die
=17	=17
8.cc#	lez-
16b	-ten
8a	Ha2u-
16b	|
16cc#	fer
=18	=18
8cc#	stehn,
8b}	|}
8r	.
{16b	{Sich
16ee	die
=19	=19
16ee	Nach-
16dd#	|
16cc#	-barn
16b	|
8.b	freund-
16a	-lich
=20	=20
8a	gru2s-
8g#}	-sen,}
8r	.
{16g#	{Ma2d-
16g#	-chen
=21	=21
8.cc#	aus
16ddn	dem
8.cc#	Fen-
16b	-ster
=22	=22
8b	sehn,
8a	|
8.ff#	Ih-
16cc#	re
=23	=23
8.b	Blu-
16cc#	-men
8.b	zu
16a	be-
=24	=24
8a	-gies-
8g#}	-sen,}
{[4ee	{ach!
=25	=25
4ee]	|
4cc#	da
=26	=26
8.b	sehnt
16e	mein
8.f#	Herz
16d#	sich
=27	=27
8e}	hin.}
8r	.
4r	.
==	==
*-	*-
